icons/svg/icons8/dj.svg

<svg width="26" height="26" viewBox="0 0 26 26" fill="none" xmlns="http://www.w3.org/2000/svg">
<path d="M8 5.678C8 2.82 10.238 0.5 13 0.5C15.762 0.5 18 2.82 18 5.678" stroke="#333333" stroke-miterlimit="10"/>
<path d="M11.0161 11C9.61006 11 8.23506 11.391 7.46906 12.734L2.74806 21.26C1.58906 23.576 4.56706 23.6 6.06006 21.221C6.06206 21.217 10.5231 13.22 10.5231 13.22C10.7731 12.749 12.5661 11 11.0161 11Z" fill="#333333"/>
<path d="M14.9838 11C16.3898 11 17.7648 11.391 18.5308 12.734L23.2518 21.259C24.4108 23.575 21.4328 23.599 19.9398 21.22C19.9378 21.216 15.4768 13.219 15.4768 13.219C15.2268 12.749 13.4338 11 14.9838 11Z" fill="#333333"/>
<path d="M25 21H19.997C19.445 21 18.555 21.447 18.008 22L17.018 23H8.982L7.992 22C7.445 21.447 6.554 21 6.003 21H1C0.448 21 0 21.447 0 22V25C0 25.553 0.448 26 1 26H25C25.553 26 26 25.553 26 25V22C26 21.447 25.553 21 25 21Z" fill="#333333"/>
<path d="M15 11H11C10.448 11 9 13.448 9 14V21C9 21.553 9.448 22 10 22H16C16.553 22 17 21.553 17 21V14C17 13.448 15.553 11 15 11Z" fill="#333333"/>
<path d="M13 10C15.2091 10 17 8.20914 17 6C17 3.79086 15.2091 2 13 2C10.7909 2 9 3.79086 9 6C9 8.20914 10.7909 10 13 10Z" fill="#333333"/>
<path d="M19 7C19 7.552 18.553 8 18 8C17.447 8 17 7.552 17 7V5C17 4.448 17.447 4 18 4C18.553 4 19 4.448 19 5V7Z" fill="#333333"/>
<path d="M9 7C9 7.552 8.552 8 8 8C7.448 8 7 7.552 7 7V5C7 4.448 7.448 4 8 4C8.552 4 9 4.448 9 5V7Z" fill="#333333"/>
</svg>

<?xml version="1.0" encoding="utf-8"?>
<!-- Generator: Adobe Illustrator 16.0.0, SVG Export Plug-In . SVG Version: 6.00 Build 0)  -->
<!DOCTYPE svg PUBLIC "-//W3C//DTD SVG 1.1//EN" "http://www.w3.org/Graphics/SVG/1.1/DTD/svg11.dtd">
<svg version="1.1" id="Layer_1" xmlns="http://www.w3.org/2000/svg" xmlns:xlink="http://www.w3.org/1999/xlink" x="0px" y="0px"
	 width="26px" height="26px" viewBox="0 0 26 26" enable-background="new 0 0 26 26" xml:space="preserve">
<rect fill="none" width="26" height="26"/>
<path fill="none" stroke="#333333" stroke-miterlimit="10" d="M8,5.678C8,2.82,10.238,0.5,13,0.5c2.762,0,5,2.32,5,5.178"/>
<path fill="#333333" d="M11.016,11c-1.406,0-2.781,0.391-3.547,1.734L2.748,21.26c-1.159,2.316,1.819,2.34,3.312-0.039
	c0.002-0.004,4.463-8.001,4.463-8.001C10.773,12.749,12.566,11,11.016,11z"/>
<path fill="#333333" d="M14.984,11c1.406,0,2.781,0.391,3.547,1.734l4.721,8.525c1.159,2.316-1.819,2.34-3.312-0.039
	c-0.002-0.004-4.463-8.001-4.463-8.001C15.227,12.749,13.434,11,14.984,11z"/>
<path fill="#333333" d="M25,21h-5.003c-0.552,0-1.442,0.447-1.989,1l-0.99,1H8.982l-0.99-1c-0.547-0.553-1.438-1-1.989-1H1
	c-0.552,0-1,0.447-1,1v3c0,0.553,0.448,1,1,1h24c0.553,0,1-0.447,1-1v-3C26,21.447,25.553,21,25,21z"/>
<path fill="#333333" d="M15,11h-4c-0.552,0-2,2.448-2,3v7c0,0.553,0.448,1,1,1h6c0.553,0,1-0.447,1-1v-7C17,13.448,15.553,11,15,11z
	"/>
<circle fill="#333333" cx="13" cy="6" r="4"/>
<path fill="#333333" d="M19,7c0,0.552-0.447,1-1,1l0,0c-0.553,0-1-0.448-1-1V5c0-0.552,0.447-1,1-1l0,0c0.553,0,1,0.448,1,1V7z"/>
<path fill="#333333" d="M9,7c0,0.552-0.448,1-1,1l0,0C7.448,8,7,7.552,7,7V5c0-0.552,0.448-1,1-1l0,0c0.552,0,1,0.448,1,1V7z"/>
</svg>
